!!!OTL: Lang gan shengchan bi ren qiang
!!!ARE: Asia, China,ÿAnhui Dingyuan
!! III, 549
!!!SCT: C2054
!!!YEM: Copyright 1995, estate of Helmut Schaffrath.
**kern
*ICvox
*Ivox
*M2/4
*k[]
*C:
{8a
8a
8a
8a
=1
8a
8a
8cc
16cc
16cc
=2
8e
8a
4g}
=3
{8cc
8cc
8e
8e
=4
2g}
=5
{8a
8a
8dd
8a
=6
2g}
=7
{8cc
8cc
8e
8a
=8
2g}
=9
{8g
8e
8g
8a
=10
8cc
4cc
8a
=11
8dd
4dd
8ee
=12
8cc
8a
8g
8e
=13
8d
16c
16d
8e
8d
=14
2c}
==
!!!AGN: Xiaodiao
!!!AMT: simple duple
!!!AIN: vox
!!!EED: Helmut Schaffrath
!!!EEV: 1.0
*-
